X: 15106
T: Ghoid Iad Mo Bhean Uam An Reir
R: strathspey
M: 4/4
K: Aminor
e>dc>d cA A2|c>AG>A GE E2|e>dc>d dA A2|G>DE>G A2 A2:|
A<AA>G A<A A2|G>ED>E C>D E2|A<AA>G A<A A2|G>D E<G A2 A,2:|

